optimized/outline/film.svg

<svg xmlns="http://www.w3.org/2000/svg" fill="none" viewBox="0 0 24 24" stroke-width="2" stroke="currentColor" aria-hidden="true">
  <path stroke-linecap="round" stroke-linejoin="round" d="M7 4V20M17 4V20M3 8H7M17 8H21M3 12H21M3 16H7M17 16H21M4 20H20C20.5523 20 21 19.5523 21 19V5C21 4.44772 20.5523 4 20 4H4C3.44772 4 3 4.44772 3 5V19C3 19.5523 3.44772 20 4 20Z"/>
</svg>

<svg xmlns="http://www.w3.org/2000/svg" fill="none" viewBox="0 0 24 24" stroke-width="2" stroke="currentColor" aria-hidden="true">
  <path stroke-linecap="round" stroke-linejoin="round" d="M7 4v16M17 4v16M3 8h4m10 0h4M3 12h18M3 16h4m10 0h4M4 20h16a1 1 0 001-1V5a1 1 0 00-1-1H4a1 1 0 00-1 1v14a1 1 0 001 1z"/>
</svg>
